Newaita-dark/actions/16/system-reboot.svg

<svg height="16" viewBox="0 0 16 16" width="16" xmlns="http://www.w3.org/2000/svg"><g fill="#ff7043"><path d="m7.9375 1.449219c-3.664062 0-6.613281 2.949219-6.613281 6.613281s2.949219 6.617188 6.613281 6.617188 6.617188-2.953126 6.617188-6.617188-2.953126-6.613281-6.617188-6.613281zm0 1.320312c2.933594 0 5.292969 2.363281 5.292969 5.292969 0 2.933594-2.359375 5.292969-5.292969 5.292969-2.929688 0-5.292969-2.359375-5.292969-5.292969 0-2.929688 2.363281-5.292969 5.292969-5.292969zm0 0"/><path d="m3.472656 8.0625h3.308594l-1.65625 2.648438zm0 0"/><path d="m9.097656 8.0625h3.304688l-1.652344-2.644531zm0 0"/><path d="m5.140625 9.171875c.199219.003906.386719-.078125.515625-.226563.132812-.152343.1875-.351562.152344-.546874-.101563-.65625.09375-1.34375.605468-1.859376.515626-.511718 1.203126-.707031 1.859376-.605468.234374.042968.472656-.046875.625-.230469.148437-.183594.1875-.433594.101562-.65625s-.285156-.378906-.519531-.414063c-1.058594-.167968-2.183594.164063-2.996094.976563s-1.144531 1.9375-.976563 2.996094c.046876.316406.3125.554687.632813.566406zm0 0"/><path d="m7.792969 11.53125c.9375.039062 1.886719-.300781 2.597656-1.015625.816406-.8125 1.144531-1.9375.976563-2.996094-.03125-.234375-.191407-.433593-.410157-.519531-.222656-.085938-.472656-.046875-.65625.105469-.1875.148437-.273437.386719-.234375.621093.105469.65625-.09375 1.347657-.605468 1.859376-.511719.511718-1.203126.710937-1.859376.605468-.234374-.039062-.472656.046875-.621093.234375-.152344.183594-.191407.433594-.105469.65625.085938.21875.285156.378907.519531.410157.132813.023437.265625.035156.398438.039062zm0 0"/></g></svg>

<svg xmlns="http://www.w3.org/2000/svg" xmlns:xlink="http://www.w3.org/1999/xlink" width="16px" height="16px" viewBox="0 0 16 16" version="1.1">
<g id="surface1">
<path style=" stroke:none;fill-rule:nonzero;fill:rgb(100%,43.921569%,26.274511%);fill-opacity:1;" d="M 7.9375 1.449219 C 4.273438 1.449219 1.324219 4.398438 1.324219 8.0625 C 1.324219 11.726562 4.273438 14.679688 7.9375 14.679688 C 11.601562 14.679688 14.554688 11.726562 14.554688 8.0625 C 14.554688 4.398438 11.601562 1.449219 7.9375 1.449219 Z M 7.9375 2.769531 C 10.871094 2.769531 13.230469 5.132812 13.230469 8.0625 C 13.230469 10.996094 10.871094 13.355469 7.9375 13.355469 C 5.007812 13.355469 2.644531 10.996094 2.644531 8.0625 C 2.644531 5.132812 5.007812 2.769531 7.9375 2.769531 Z M 7.9375 2.769531 "/>
<path style=" stroke:none;fill-rule:nonzero;fill:rgb(100%,43.921569%,26.274511%);fill-opacity:1;" d="M 3.472656 8.0625 L 6.78125 8.0625 L 5.125 10.710938 Z M 3.472656 8.0625 "/>
<path style=" stroke:none;fill-rule:nonzero;fill:rgb(100%,43.921569%,26.274511%);fill-opacity:1;" d="M 9.097656 8.0625 L 12.402344 8.0625 L 10.75 5.417969 Z M 9.097656 8.0625 "/>
<path style=" stroke:none;fill-rule:nonzero;fill:rgb(100%,43.921569%,26.274511%);fill-opacity:1;" d="M 5.140625 9.171875 C 5.339844 9.175781 5.527344 9.09375 5.65625 8.945312 C 5.789062 8.792969 5.84375 8.59375 5.808594 8.398438 C 5.707031 7.742188 5.902344 7.054688 6.414062 6.539062 C 6.929688 6.027344 7.617188 5.832031 8.273438 5.933594 C 8.507812 5.976562 8.746094 5.886719 8.898438 5.703125 C 9.046875 5.519531 9.085938 5.269531 9 5.046875 C 8.914062 4.824219 8.714844 4.667969 8.480469 4.632812 C 7.421875 4.464844 6.296875 4.796875 5.484375 5.609375 C 4.671875 6.421875 4.339844 7.546875 4.507812 8.605469 C 4.554688 8.921875 4.820312 9.160156 5.140625 9.171875 Z M 5.140625 9.171875 "/>
<path style=" stroke:none;fill-rule:nonzero;fill:rgb(100%,43.921569%,26.274511%);fill-opacity:1;" d="M 7.792969 11.53125 C 8.730469 11.570312 9.679688 11.230469 10.390625 10.515625 C 11.207031 9.703125 11.535156 8.578125 11.367188 7.519531 C 11.335938 7.285156 11.175781 7.085938 10.957031 7 C 10.734375 6.914062 10.484375 6.953125 10.300781 7.105469 C 10.113281 7.253906 10.027344 7.492188 10.066406 7.726562 C 10.171875 8.382812 9.972656 9.074219 9.460938 9.585938 C 8.949219 10.097656 8.257812 10.296875 7.601562 10.191406 C 7.367188 10.152344 7.128906 10.238281 6.980469 10.425781 C 6.828125 10.609375 6.789062 10.859375 6.875 11.082031 C 6.960938 11.300781 7.160156 11.460938 7.394531 11.492188 C 7.527344 11.515625 7.660156 11.527344 7.792969 11.53125 Z M 7.792969 11.53125 "/>
</g>
</svg>
